!!!COM: Scriabin, Alexander
!!!OTL@@FR: Prélude en si bémol mineur
!!!OTL@@EN: Prelude in Bb Minor
!!!OPR@@FR: 7 Préludes
!!!OPR@@EN: 7 Preludes
!!!OPS: 17
!!!ONM: 4
!!!ODT: 1895
!!!AGN: Prelude
**kern	**kern	**dynam
*staff2	*staff1	*staff1/2
*Ipiano	*Ipiano	*
*clefF4	*clefG2	*
*k[b-e-a-d-g-]	*k[b-e-a-d-g-]	*
*b-:	*b-:	*
*M3/2	*M3/2	*
8BB-	8r	.
=1	=1	=1
8CL	4r	pp
8D-	.	.
*	*^	*
8B-	8d- 8f	8b-	.
*	*v	*v	*
8E-J	8r	.
8FL	4r	.
8G-	.	.
*	*^	*
8d-	4e- 4g-	4b-	<
8cJ	.	.	(
8B-L	[4e- 4g-	4dd-	[ >
8An	.	.	)
8g-	8e-]	8cc	]
*	*v	*v	*
8BB-J	8r	.
=2	=2	=2
8CL	4r	.
8D-	.	.
*	*^	*
8B-	8d- 8g-	8b-	.
*	*v	*v	*
8E-J	8r	.
8FL	4r	.
8G-	.	.
*	*^	*
8d-	4e- 4g-	4b-	<
8cJ	.	.	(
8B-L	4g- 4dd-	4ff	[ >
8An	.	.	)
8g-	4r	4cc 4ee-	]
8AJ	.	.	.
!!LO:LB:g=original
=3	=3	=3	=3
8B-L	4f 4b-	4dd-	<
8F	.	.	(
8Bn	4g- 4an	4ee-	[
8cJ	.	.	.
8e-L	2a 2cc	2gg-	mp
8dn	.	.	.
8f	.	.	.
8e-J	.	.	.
8d-XL	2g- 2b-	4ff	.
8c	.	.	.
8d-	.	4dd-	.
8B-XJ	.	.	.
=4	=4	=4	=4
*	*	*^	*
8A-L	2en\	1b-	1cc	>
8Gn	.	.	.	)
8B-	.	.	.	)
8A-J	.	.	.	)
8GL	1e-X	.	.	)
8F#X	.	.	.	)
8A-	.	.	.	)
8GJ	.	.	.	)
8G-XL	.	2an	4dd-	)
8Fn	.	.	.	)
8G-	.	.	4cc	)
8BB-J	.	.	.	]
*	*	*v	*v	*
*	*v	*v	*
=5	=5	=5
8CL	4r	pp
8D-	.	.
*	*^	*
8B-	8d- 8g-	8b-	.
*	*v	*v	*
8E-J	8r	.
8FL	4r	.
8G-	.	.
*	*^	*
8d-	4e- 4g-	4b-	<
8cJ	.	.	(
8B-L	[4e- 4g-	4dd-	[ >
8An	.	.	)
8g-	4e-]	4cc	]
8E-J	.	.	.
*	*v	*v	*
!!LO:LB:g=original
=6	=6	=6
8FL	4r	<
8G-	.	.
*	*^	*
8e-	4g- 4cc-X	4ee-	.
8A-J	.	.	.
*	*v	*v	*
8B-L	4r	.
8c-X	.	.
*	*^	*
8g-	4a- 4cc-	4ee-	<
8fJ	.	.	(
8e-L	2a- 2cc-	4gg-	[ >
8dn	.	.	)
*clefG2	*	*	*
8cc-X	.	4ff	]
8dnJ	.	.	.
*	*v	*v	*
=7	=7	=7
8e-L	4b- 4ee- 4gg-	mf <
8B-	.	(
8en	4cc-X 4ddn 4aa-	(
8fJ	.	[
8a-L	2dd 2ff 2ccc-X	>
8gn	.	)
8b-	.	)
8a-J	.	)
8g-XL	4ee- 4bb-	)
8f	.	)
8g-	4r	]
8A-J	.	.
!!LO:LB:g=original
=8	=8	=8
8dnL	4a- 4cc-X 4ff	mp <
8A-	.	(
8d	4b-- 4ccn 4gg-	(
8e-J	.	[
8g-L	2cc 2ee- 2bb--	>
8A-	.	)
8a-	.	)
8g-J	.	)
8f-XL	4dd- 4aa-	]
8e-	.	>
8f-	4r	.
8G-J	.	.
=9	=9	=9
*	*^	*
8cL	4g- 4b--	4ee-	ppp
8G-	.	.	.
8c	4g- 4b-X	4ff-X	.
8d-J	.	.	.
8f-XL	2b- 2dd-	4aa-	.
*^	*	*	*
4.G-	8G-	.	.	.
.	8g-	.	8bb-L	.
.	8f-J	.	8aa-J	.
*v	*v	*	*	*
8f-L	4.cc-X	4.gg-	.
8e-	.	.	.
8G-	.	.	.
*	*v	*v	*
*clefF4	*	*
8GG-J	8r	.
=10	=10	=10
*	*^	*
8CnL	4B--	4e-	.
8GG-	.	.	.
8C	[4B-X	4f-X	.
8D-J	.	.	.
8F-XL	2B-] 2d-	4a-	.
8GG-	.	.	.
8G-	.	8b-L	.
8F-J	.	8a-J	.
8F-L	4.c-X	4.g-	.
8E-	.	.	.
8GG-	.	.	.
*	*v	*v	*
8GG-J	8r	.
!!LO:LB:g=original
=11	=11	=11
*	*^	*
8D-L	2B-	4en	<
8C	.	.	.
8D-	.	4e	.
8FFJ	.	.	.
8D-L	1B-	[2f	<
8C	.	.	(
8D-	.	.	(
8FJ	.	.	(
8A-L	.	8fL]	[ >
8G-	.	8e-XJ	)
8F	.	4d-	)
8FFJ	.	.	]
=12	=12	=12	=12
8D-L	[2An [2d-	4e-	.
8G-	.	.	>
8F	.	8fL	.
[8E-J	.	[8g-J	.
2E-]	2A] 2d-] 2g-]	2dd-	.
*	*v	*v	*
2FF 2E- 2An	[2d- 2f 2an [2dd-	.
=13	=13	=13
[16qBBB-/LL	4qd-] 4qdd-_	ppp
[16qFF	.	.
[16qD-	.	.
[16qB-	.	.
N[16qd->	.	.
N[16qf>	.	.
N[16qb->JJ	.	.
1.BBBB-] 1.BBB-] 1.FF] 1.D-] 1.B-]	1.d-N] 1.fN] 1.b-N] 1.dd-]	.
==	==	==
*-	*-	*-
!!!system-decoration: {(*)}
!!!filter: flipper -a
!!!RDF**kern: > = above
!!!RDF**kern: < = below
!!!RDF**kern: N = linked
!!!RDF**dynam: > = dim.
!!!ENC: Bryan Jacob Bell
!!!END: November 2021 to April 2022
!!!PED: Konstantin Igumnov and Yakov Milstein
!!!PTL: A.N. Skryabin: Polnoe sobranie sochinenii dlia fortepiano (Muzgiz)
!!!URL-pdf: https://github.com/bel28kent/Mysterium/blob/main/reference_editions/op17.pdf
